img/enjoy.svg

<svg width="92" height="47" viewBox="0 0 92 47" fill="none" xmlns="http://www.w3.org/2000/svg">
<path d="M55.3741 38.2501C55.9991 38.2501 56.3991 38.0501 57.6991 38.0501C58.4241 38.0501 59.4491 38.1501 60.1491 38.1501C61.0741 38.1501 62.0741 37.6751 62.5491 37.1501C62.6991 37.0001 62.6491 36.8001 62.4491 36.6251C62.4491 36.4751 62.2991 36.2751 62.1741 36.2751C61.7741 36.2751 61.4491 36.8251 60.0491 36.8251C59.7241 36.8251 58.1991 36.6751 57.5491 36.6751C57.0491 36.6751 56.7991 36.7001 56.5491 36.7251C56.5241 35.2501 56.3491 33.5001 56.2491 31.7251C57.1741 31.7251 59.1991 31.6501 59.9491 31.5251C60.1991 31.4751 60.3491 31.1501 60.2741 30.8751C60.2991 30.6001 60.1241 30.3751 59.8741 30.3751C58.2991 30.3751 57.3241 30.2751 56.1241 30.2501C56.0241 28.5501 55.9741 26.5751 56.0741 25.8001C57.4241 25.6751 58.5741 25.6251 60.1991 25.7001C60.5991 25.7001 60.7491 25.5001 60.6241 25.1001C60.7241 24.6501 60.5741 24.4251 60.2491 24.4001C59.4991 24.3251 59.1491 24.3251 58.6741 24.3251C57.8991 24.2751 56.2241 24.3751 55.2241 24.5001C54.4241 24.6001 54.4241 25.2751 54.5491 25.8501C54.4991 26.9751 54.5991 27.9751 54.5991 28.6001C54.5991 30.4001 54.9991 35.0751 54.9991 36.9751C54.9241 37.1751 54.8491 37.4501 54.8741 37.7001C54.8741 37.8251 55.1241 38.2501 55.3741 38.2501Z" fill="white"/>
<path d="M69.1096 38.4251C69.4846 38.4501 69.6096 38.3251 69.6096 38.0251C69.6096 37.4251 69.2346 37.2001 69.0846 35.9251C69.0096 35.4251 68.9346 34.6001 68.8346 33.7751C68.5846 32.0251 67.7346 30.9751 66.9596 30.9751C65.7596 30.9751 64.9846 32.3001 64.4096 34.3251C64.4596 33.0251 64.4096 31.5501 64.3846 31.1501C64.3346 30.6751 64.1596 30.5501 63.7346 30.6251C63.2096 30.5251 62.9596 30.7251 62.9846 31.2251C63.0096 32.0251 63.1846 33.4501 63.2846 34.7751C63.4096 36.0501 63.3846 36.8001 63.3846 37.8501C63.3846 38.3751 63.6346 38.5251 63.9846 38.4001C64.2596 38.5001 64.6846 38.3501 64.7346 37.9501C64.8346 37.0251 64.9346 36.0751 65.1596 35.2001C65.5346 33.7501 66.1096 32.5501 66.6346 32.3001C67.1346 32.6251 67.3846 33.2751 67.4846 34.2001C67.5846 34.9251 67.7096 35.6251 67.7596 36.3501C67.9346 38.4751 68.5346 38.7251 69.1096 38.4251Z" fill="white"/>
<path d="M72.068 29.0751C72.443 29.0751 72.968 28.6501 72.968 27.8501C72.968 27.3001 72.618 26.8501 72.118 26.8501C71.543 26.8501 71.193 27.4251 71.343 28.0251C71.193 28.4751 71.343 29.0751 72.068 29.0751ZM69.293 44.6751C71.768 44.6751 73.493 42.6751 73.493 40.0251C73.493 38.9251 73.243 38.0751 73.018 37.0001C72.618 35.2251 72.468 33.4001 72.468 31.5751C72.443 31.1001 72.193 30.9501 71.843 31.0751C71.393 30.9501 70.993 31.1251 70.993 31.6001C70.943 33.7251 71.118 35.8251 71.518 36.4751C71.868 37.8001 72.118 39.2751 72.118 40.1751C72.118 42.2251 70.968 43.5751 69.043 43.5751C68.643 43.5751 68.318 43.4751 68.043 43.4501C67.793 43.0251 67.718 42.5251 67.793 41.7001C67.818 41.4001 67.568 41.2501 67.143 41.4001C66.868 41.2751 66.668 41.6501 66.668 42.3751C66.668 43.5001 66.918 43.9751 67.593 44.1751C67.818 44.5001 68.568 44.6751 69.293 44.6751Z" fill="white"/>
<path d="M76.5598 38.4251C77.6598 38.4251 79.4348 37.1001 79.4348 35.4251C79.4348 34.3751 78.5598 32.8251 76.9348 31.5251C77.2848 31.1751 77.1848 30.6501 76.8098 30.5501C76.6098 30.1751 76.1348 30.1251 75.8098 30.5001C74.7598 31.5501 74.1348 33.5001 74.1348 35.1251C74.1348 36.9501 75.0348 38.4251 76.5598 38.4251ZM76.4848 37.1751C75.8598 37.1751 75.5348 36.2251 75.5348 35.3501C75.5348 34.3751 75.8098 33.1001 76.4098 32.2001C76.9098 32.8751 78.1098 34.3251 78.1098 35.3501C78.1098 36.3501 77.1348 37.1751 76.4848 37.1751Z" fill="white"/>
<path d="M81.5319 46.2751C82.0569 46.4251 82.2819 46.1751 82.3819 45.6001C82.5319 44.7251 82.8069 43.9001 83.1319 43.0751C83.6819 41.8001 84.4069 40.5001 84.9069 39.0001C85.5819 37.0001 86.1069 34.9751 86.3319 32.4251C86.3819 31.9501 86.4319 31.6001 86.4319 31.1001C86.4319 30.6251 86.1569 30.4001 85.7569 30.5001C85.4069 30.4001 85.0069 30.6001 85.0069 31.0751C84.9569 33.0001 84.4819 35.5001 84.1569 36.9501C83.5319 36.6251 83.0569 36.1001 82.5819 34.9251C82.1819 33.9501 81.9069 32.7251 81.6819 31.4751C81.6069 31.0001 81.3319 30.7251 80.7819 30.8251C80.3069 30.7251 80.0569 31.1251 80.1569 31.6751C80.9319 35.7501 82.2569 37.7501 83.7819 38.1751C83.3319 39.7001 82.5319 41.2251 82.1819 42.1251C81.8819 42.1001 81.5569 42.2751 81.4319 42.6751C81.0569 43.8251 80.9819 45.1751 80.9569 45.7251C80.9319 46.1251 81.1569 46.4001 81.5319 46.2751Z" fill="white"/>
<path d="M89.4887 34.3251C89.8137 34.4501 90.1387 34.4001 90.1887 33.9001C90.2137 33.3251 90.2637 32.7501 90.3137 32.1751C90.7137 29.0751 91.1637 25.6501 91.5387 22.5751C91.5637 22.3001 91.6137 21.9251 91.5887 21.6751C91.5387 21.2001 91.1887 21.0001 90.8387 21.2001C90.1387 21.0001 90.0637 21.2001 90.0637 21.8251C89.9637 24.7751 89.6137 27.7751 89.2887 30.7001C89.2137 31.4751 89.0887 32.2501 88.9387 33.0251L88.8387 33.5251C88.5387 34.1751 89.0137 34.4501 89.4887 34.3251ZM88.6637 38.1501C88.8887 38.1501 89.2387 38.1251 89.5637 37.8251C89.9137 37.5001 90.0387 37.3001 90.0137 36.8501C90.0387 36.4001 89.7137 36.0501 89.2637 36.0751C89.1137 36.0751 88.8387 36.0501 88.3637 36.2751C87.9637 36.5501 87.8387 36.9001 87.8387 37.2251C87.8387 37.7751 88.1887 38.1501 88.6637 38.1501Z" fill="white"/>
<path d="M3 3V21.5C3 28.1274 8.37258 33.5 15 33.5H43.5" stroke="#737380" stroke-dasharray="2 2"/>
<circle cx="3" cy="3" r="3" fill="#737380"/>
</svg>

<svg width="92" height="47" fill="none" xmlns="http://www.w3.org/2000/svg"><path d="M55.374 38.25c.625 0 1.025-.2 2.325-.2.725 0 1.75.1 2.45.1.925 0 1.925-.475 2.4-1 .15-.15.1-.35-.1-.525 0-.15-.15-.35-.275-.35-.4 0-.725.55-2.125.55-.325 0-1.85-.15-2.5-.15-.5 0-.75.025-1 .05-.025-1.475-.2-3.225-.3-5 .925 0 2.95-.075 3.7-.2.25-.05.4-.375.325-.65.025-.275-.15-.5-.4-.5-1.575 0-2.55-.1-3.75-.125-.1-1.7-.15-3.675-.05-4.45 1.35-.125 2.5-.175 4.125-.1.4 0 .55-.2.425-.6.1-.45-.05-.675-.375-.7-.75-.075-1.1-.075-1.575-.075-.775-.05-2.45.05-3.45.175-.8.1-.8.775-.675 1.35-.05 1.125.05 2.125.05 2.75 0 1.8.4 6.475.4 8.375-.075.2-.15.475-.125.725 0 .125.25.55.5.55ZM69.11 38.425c.375.025.5-.1.5-.4 0-.6-.375-.825-.525-2.1-.075-.5-.15-1.325-.25-2.15-.25-1.75-1.1-2.8-1.875-2.8-1.2 0-1.975 1.325-2.55 3.35.05-1.3 0-2.775-.025-3.175-.05-.475-.225-.6-.65-.525-.525-.1-.775.1-.75.6.025.8.2 2.225.3 3.55.125 1.275.1 2.025.1 3.075 0 .525.25.675.6.55.275.1.7-.05.75-.45.1-.925.2-1.875.425-2.75.375-1.45.95-2.65 1.475-2.9.5.325.75.975.85 1.9.1.725.225 1.425.275 2.15.175 2.125.775 2.375 1.35 2.075Z" fill="#fff"/><path d="M72.068 29.075c.375 0 .9-.425.9-1.225 0-.55-.35-1-.85-1-.575 0-.925.575-.775 1.175-.15.45 0 1.05.725 1.05Zm-2.775 15.6c2.475 0 4.2-2 4.2-4.65 0-1.1-.25-1.95-.475-3.025-.4-1.775-.55-3.6-.55-5.425-.025-.475-.275-.625-.625-.5-.45-.125-.85.05-.85.525-.05 2.125.125 4.225.525 4.875.35 1.325.6 2.8.6 3.7 0 2.05-1.15 3.4-3.075 3.4-.4 0-.725-.1-1-.125-.25-.425-.325-.925-.25-1.75.025-.3-.225-.45-.65-.3-.275-.125-.475.25-.475.975 0 1.125.25 1.6.925 1.8.225.325.975.5 1.7.5ZM76.56 38.425c1.1 0 2.875-1.325 2.875-3 0-1.05-.875-2.6-2.5-3.9.35-.35.25-.875-.125-.975-.2-.375-.675-.425-1-.05-1.05 1.05-1.675 3-1.675 4.625 0 1.825.9 3.3 2.425 3.3Zm-.075-1.25c-.625 0-.95-.95-.95-1.825 0-.975.275-2.25.875-3.15.5.675 1.7 2.125 1.7 3.15 0 1-.975 1.825-1.625 1.825ZM81.532 46.275c.525.15.75-.1.85-.675.15-.875.425-1.7.75-2.525.55-1.275 1.275-2.575 1.775-4.075.675-2 1.2-4.025 1.425-6.575.05-.475.1-.825.1-1.325 0-.475-.275-.7-.675-.6-.35-.1-.75.1-.75.575-.05 1.925-.525 4.425-.85 5.875-.625-.325-1.1-.85-1.575-2.025-.4-.975-.675-2.2-.9-3.45-.075-.475-.35-.75-.9-.65-.475-.1-.725.3-.625.85.775 4.075 2.1 6.075 3.625 6.5-.45 1.525-1.25 3.05-1.6 3.95-.3-.025-.625.15-.75.55-.375 1.15-.45 2.5-.475 3.05-.025.4.2.675.575.55ZM89.489 34.325c.325.125.65.075.7-.425.025-.575.075-1.15.125-1.725.4-3.1.85-6.525 1.225-9.6.025-.275.075-.65.05-.9-.05-.475-.4-.675-.75-.475-.7-.2-.775 0-.775.625-.1 2.95-.45 5.95-.775 8.875-.075.775-.2 1.55-.35 2.325l-.1.5c-.3.65.175.925.65.8Zm-.825 3.825c.225 0 .575-.025.9-.325.35-.325.475-.525.45-.975.025-.45-.3-.8-.75-.775-.15 0-.425-.025-.9.2-.4.275-.525.625-.525.95 0 .55.35.925.825.925Z" fill="#fff"/><path d="M3 3v18.5c0 6.627 5.373 12 12 12h28.5" stroke="#737380" stroke-dasharray="2 2"/><circle cx="3" cy="3" r="3" fill="#737380"/></svg>
